X:117
T:Birmingham March, The
S:John Moore's Book 2
Z:Transcribed by Steve Mansfield 05/2021
%%VWML: Moore2-4494-p91-0
F:http://www.vwml.org/record/Moore2/4494/p91
M:C
L:1/8
K:G
d/c/ | B2BB BdcB | A2A>A A2B>c | edcB dcBA | G2G>G G2dc | 
B2BB BdcB | A2A>A A2B>c | d2cB dcBA | G2G>G G2 :|
|: gf | e2d>d d2GA | B2B>B B2gf | e2d>d d2cB | A2A>A A2d>c | 
B2B>B BdcB | A2A>A A2B>c | d2cB dcBA | G2G>G G2 :|

